X: 1
T: Martin Wynne's
R: reel
M: 4/4
L: 1/8
K: Gmaj
|: Bc | dged BdAc | BG {A}(3GFG DEGA | BG {A}(3GFG Bdef |
gbaf gfec |dged BdAc | BG {A}(3GFG DEGA | BG {A}(3GFG Bdef |
gbaf g2 (3Bcd | g2gf gfec | dged BGBd | g2fa gfec | dega bg {a}(3gfg |
gbaf gfec | dged BGBd | g2fa gfed | ceaf g2:|


Tune 461	Setting 27885

